X: 37817
T: Sonny Murray's
R: hornpipe
M: 4/4
K: Dmixolydian
FG|ABEG DEFG|ABAB c2 (3ABc|dcde dcAF|DFAF (3GBG FG|
(3ABc AF DEFG|ABAB c2 (3ABc|defd cAGE|FDDC D2||
de|fefd ecAF|Gggf g2 (3efg|a2 ag agec|(3dfd cA G2 FG|
(3ABc AF DEFG|ABAB c2 (3ABc|defd cAGE|FDDC D2||

